neru-light-classic/32x32/apps/XFdrake-mdk.svg

<?xml version="1.0" encoding="UTF-8" standalone="no"?>
<svg
   xmlns:dc="http://purl.org/dc/elements/1.1/"
   xmlns:cc="http://creativecommons.org/ns#"
   xmlns:rdf="http://www.w3.org/1999/02/22-rdf-syntax-ns#"
   xmlns:svg="http://www.w3.org/2000/svg"
   xmlns="http://www.w3.org/2000/svg"
   xmlns:sodipodi="http://sodipodi.sourceforge.net/DTD/sodipodi-0.dtd"
   xmlns:inkscape="http://www.inkscape.org/namespaces/inkscape"
   width="32"
   height="32"
   version="1"
   id="svg54"
   sodipodi:docname="XFdrake-mdk.svg"
   inkscape:version="0.92.1 r">
  <metadata
     id="metadata60">
    <rdf:RDF>
      <cc:Work
         rdf:about="">
        <dc:format>image/svg+xml</dc:format>
        <dc:type
           rdf:resource="http://purl.org/dc/dcmitype/StillImage" />
        <dc:title />
      </cc:Work>
    </rdf:RDF>
  </metadata>
  <defs
     id="defs58" />
  <sodipodi:namedview
     pagecolor="#ffffff"
     bordercolor="#666666"
     borderopacity="1"
     objecttolerance="10"
     gridtolerance="10"
     guidetolerance="10"
     inkscape:pageopacity="0"
     inkscape:pageshadow="2"
     inkscape:window-width="1680"
     inkscape:window-height="963"
     id="namedview56"
     showgrid="false"
     inkscape:zoom="7.375"
     inkscape:cx="-42.517709"
     inkscape:cy="6.7882127"
     inkscape:window-x="0"
     inkscape:window-y="0"
     inkscape:window-maximized="1"
     inkscape:current-layer="svg54" />
  <path
     style="opacity:1;fill:#b7b7b7;fill-opacity:1;fill-rule:evenodd;stroke:none;stroke-width:1.03534329;stroke-linecap:round;stroke-linejoin:bevel;stroke-miterlimit:4;stroke-dasharray:none;stroke-dashoffset:0;stroke-opacity:1"
     d="M 6.917968,29.990234 V 7.6308596 H 1.898437 V 24.527343 c 0,2.891608 2.207028,5.17305 5.019531,5.462891 z"
     id="path4636"
     inkscape:connector-curvature="0" />
  <path
     style="opacity:1;fill:#920000;fill-opacity:1;fill-rule:evenodd;stroke:none;stroke-width:1.03534329;stroke-linecap:round;stroke-linejoin:bevel;stroke-miterlimit:4;stroke-dasharray:none;stroke-dashoffset:0;stroke-opacity:1"
     d="m 7.472656,1.8984375 c -3.088651,0 -5.574219,2.487521 -5.574219,5.576172 v 0.15625 H 6.917968 V 29.990234 c 0.191653,0.01975 0.357645,0.111328 0.554688,0.111328 H 24.52539 c 3.088651,0 5.576172,-2.485568 5.576172,-5.574219 V 7.4746095 c 0,-3.088651 -2.487521,-5.576172 -5.576172,-5.576172 z"
     id="rect4497-3"
     inkscape:connector-curvature="0" />
  <g
     id="g4585"
     transform="translate(1.130239)">
    <g
       transform="matrix(1.1917578,0,0,1.1917578,-9.775298,-0.8841403)"
       id="g48-3"
       style="fill:#f8c44e">
      <rect
         id="rect40-6"
         y="22"
         x="17"
         height="4"
         width="2" />
      <rect
         id="rect42-7"
         y="22"
         x="20"
         height="4"
         width="2" />
      <rect
         id="rect44-5"
         y="22"
         x="23"
         height="4"
         width="2" />
      <rect
         id="rect46-3"
         y="22"
         x="26"
         height="4"
         width="2" />
    </g>
  </g>
  <path
     style="fill:#b7b7b7;fill-opacity:1;stroke-width:0.11236235"
     d="M 18.623047 5.7070312 C 17.473144 5.7182567 16.332031 5.7659944 16.332031 5.8398438 C 16.332031 5.9111078 16.485564 6.2931709 16.671875 6.6875 C 17.398132 8.2246212 17.90621 10.17334 17.90625 11.421875 C 17.90627 11.970868 17.885445 12.0154 17.662109 11.982422 C 17.467641 11.953702 17.358667 11.767689 17.117188 11.048828 C 16.647229 9.6497848 15.833237 8.1346434 14.912109 6.9472656 C 13.990423 5.7591714 14.282698 5.6852967 12.390625 7.5742188 C 11.261491 8.7014638 10.764584 9.2688942 10.857422 9.328125 C 10.932892 9.376275 11.348655 9.5524704 11.78125 9.71875 C 12.213847 9.8850293 12.811155 10.163529 13.107422 10.337891 C 13.403684 10.512256 13.674766 10.654297 13.708984 10.654297 C 13.850095 10.654297 15.518214 11.902143 15.876953 12.275391 C 16.180421 12.591135 16.23558 12.707781 16.128906 12.814453 C 15.976638 12.966761 16.012732 12.978371 14.335938 12.238281 C 13.763381 11.985574 12.828547 11.679217 12.257812 11.556641 C 11.123292 11.312981 9.3654053 11.09313 9.2285156 11.177734 C 9.1263093 11.240894 9.1093046 15.753837 9.2109375 15.855469 C 9.2493595 15.893889 9.5244662 15.80324 9.8222656 15.652344 C 11.371989 14.867039 13.566434 14.25 14.814453 14.25 C 15.290614 14.25 15.433594 14.290461 15.433594 14.419922 C 15.433594 14.716289 15.392235 14.74474 14.591797 15.013672 C 13.619283 15.340408 12.653517 15.796273 11.650391 16.402344 C 10.688308 16.983618 9.4785156 17.934385 9.4785156 18.109375 C 9.4785156 18.182105 10.206115 18.96942 11.095703 19.857422 L 12.712891 21.470703 L 12.939453 20.960938 C 13.063629 20.680198 13.202351 20.332065 13.248047 20.1875 C 13.504398 19.376523 14.865675 17.232842 15.707031 16.314453 C 16.076644 15.910995 16.114404 15.895658 16.289062 16.070312 C 16.463718 16.244967 16.460818 16.28475 16.222656 16.685547 C 15.485168 17.926612 14.826188 20.206784 14.691406 21.992188 L 14.615234 23.015625 L 16.990234 23.015625 C 18.296889 23.015625 19.367187 22.981266 19.367188 22.941406 C 19.367188 22.901536 19.194804 22.511345 18.984375 22.072266 C 18.3047 20.65407 17.886901 19.145485 17.730469 17.537109 C 17.661379 16.826768 17.676314 16.722656 17.835938 16.722656 C 17.936618 16.722656 18.052131 16.718644 18.09375 16.714844 C 18.13538 16.710944 18.329792 17.154649 18.525391 17.699219 C 18.97065 18.938855 19.461302 19.911178 20.185547 20.992188 C 20.916818 22.083676 21.408952 22.673249 21.591797 22.675781 C 21.781362 22.678581 24.895862 19.548766 24.822266 19.429688 C 24.791556 19.379967 24.52603 19.249669 24.230469 19.138672 C 22.760252 18.586538 21.098772 17.610271 19.957031 16.626953 C 19.403867 16.150542 19.380617 16.108157 19.552734 15.917969 C 19.728345 15.723923 19.76105 15.728739 20.365234 16.042969 C 21.90912 16.845914 23.580296 17.308447 25.507812 17.464844 L 26.445312 17.539062 L 26.445312 15.164062 C 26.445312 13.857777 26.419379 12.789062 26.386719 12.789062 C 26.354039 12.789062 26.037177 12.935607 25.683594 13.113281 C 24.24903 13.834159 21.880726 14.474609 20.654297 14.474609 C 20.208236 14.474609 20.154022 14.44745 20.15625 14.222656 C 20.15825 14.009106 20.284716 13.927145 20.970703 13.701172 C 22.484912 13.202374 24.171238 12.306158 25.208984 11.447266 C 25.48708 11.217097 25.829703 10.968479 25.96875 10.894531 C 26.107794 10.820591 26.220703 10.701146 26.220703 10.630859 C 26.220703 10.493081 23.081994 7.2832031 22.947266 7.2832031 C 22.902586 7.2832031 22.758883 7.5743421 22.626953 7.9296875 C 22.084891 9.3896578 20.608651 11.792078 19.792969 12.541016 C 19.540531 12.772801 19.497434 12.780772 19.363281 12.619141 C 19.23734 12.467386 19.276192 12.309138 19.615234 11.576172 C 20.293543 10.109768 20.372043 9.89064 20.603516 8.8222656 C 20.834955 7.7540431 21.055497 5.9438618 20.972656 5.7949219 C 20.931806 5.7214716 19.77295 5.6958058 18.623047 5.7070312 z M 17.794922 12.666016 A 1.694335 1.694335 0 0 1 19.488281 14.359375 A 1.694335 1.694335 0 0 1 17.794922 16.054688 A 1.694335 1.694335 0 0 1 16.099609 14.359375 A 1.694335 1.694335 0 0 1 17.794922 12.666016 z "
     id="path4532-3" />
</svg>

<svg xmlns="http://www.w3.org/2000/svg" width="32" height="32" version="1"><path d="M6.918 29.99V7.63h-5.02v16.897c0 2.892 2.207 5.173 5.02 5.463z" fill="#b7b7b7" fill-rule="evenodd"/><path d="M7.473 1.898a5.563 5.563 0 0 0-5.575 5.577v.156h5.02v22.36c.192.019.358.11.555.11h17.052a5.563 5.563 0 0 0 5.577-5.574V7.475a5.565 5.565 0 0 0-5.577-5.577z" fill="#920000" fill-rule="evenodd"/><g fill="#f8c44e"><path d="M11.615 25.335h2.383v4.767h-2.383zM15.19 25.335h2.384v4.767H15.19zM18.765 25.335h2.384v4.767h-2.384zM22.34 25.335h2.384v4.767h-2.383z"/></g><path d="M18.623 5.707c-1.15.011-2.291.059-2.291.133 0 .071.154.453.34.848.726 1.537 1.234 3.485 1.234 4.734 0 .549-.02.593-.244.56-.194-.028-.303-.214-.545-.933a14.62 14.62 0 0 0-2.205-4.102c-.922-1.188-.63-1.262-2.521.627-1.13 1.127-1.626 1.695-1.534 1.754.076.048.492.224.924.39.433.167 1.03.446 1.326.62.297.174.568.316.602.316.141 0 1.81 1.248 2.168 1.621.303.316.359.433.252.54-.152.152-.116.163-1.793-.577a12.975 12.975 0 0 0-2.078-.681c-1.135-.244-2.893-.464-3.03-.38-.102.064-.119 4.577-.017 4.678.038.039.313-.052.611-.203 1.55-.785 3.744-1.402 4.992-1.402.477 0 .62.04.62.17 0 .296-.042.325-.842.594-.973.326-1.938.782-2.942 1.388-.962.582-2.171 1.532-2.171 1.707 0 .073.727.86 1.617 1.748l1.617 1.614.226-.51c.125-.28.263-.629.309-.773.256-.811 1.618-2.955 2.459-3.874.37-.403.407-.418.582-.244.175.175.172.215-.066.616-.738 1.24-1.397 3.52-1.532 5.306l-.076 1.024h2.375c1.307 0 2.377-.035 2.377-.075 0-.04-.172-.43-.383-.869a13.4 13.4 0 0 1-1.254-4.535c-.069-.71-.054-.814.106-.814.1 0 .216-.004.258-.008.041-.004.236.44.431.984.446 1.24.936 2.212 1.66 3.293.732 1.092 1.224 1.681 1.407 1.684.19.003 3.304-3.127 3.23-3.246-.03-.05-.296-.18-.592-.291-1.47-.552-3.131-1.529-4.273-2.512-.553-.476-.576-.519-.404-.709.175-.194.208-.19.812.125 1.544.803 3.215 1.265 5.143 1.422l.937.074v-2.375c0-1.306-.026-2.375-.058-2.375-.033 0-.35.147-.703.324-1.435.721-3.803 1.362-5.03 1.362-.446 0-.5-.028-.498-.252.002-.214.129-.296.815-.522 1.514-.499 3.2-1.395 4.238-2.254.278-.23.62-.479.76-.552.139-.074.252-.194.252-.264 0-.138-3.139-3.348-3.274-3.348-.044 0-.188.291-.32.647-.542 1.46-2.018 3.862-2.834 4.611-.252.232-.296.24-.43.078-.126-.152-.087-.31.252-1.043.679-1.466.757-1.685.989-2.754.231-1.068.451-2.878.369-3.027-.041-.074-1.2-.1-2.35-.088zm-.828 6.959a1.694 1.694 0 0 1 1.693 1.693 1.694 1.694 0 0 1-1.693 1.696 1.694 1.694 0 0 1-1.695-1.696 1.694 1.694 0 0 1 1.695-1.693z" fill="#b7b7b7"/></svg>
